img/dcom-solution-testing.svg

<svg width="156" height="156" viewBox="0 0 156 156" xmlns="http://www.w3.org/2000/svg" xmlns:xlink="http://www.w3.org/1999/xlink"><title>dcom-solution-testing</title><defs><path id="a" d="M22.782 22.782h110v110h-110z"/><mask id="b" x="0" y="0" width="110" height="110" fill="#fff"><use xlink:href="#a"/></mask></defs><g fill="none" fill-rule="evenodd"><use stroke="#DEDEDE" mask="url(#b)" stroke-width="2" fill="#FFF" transform="rotate(45 77.782 77.782)" xlink:href="#a"/><path fill="#FFF" d="M18 18h120v120H18z"/><g transform="translate(56 55)" stroke-width="2" stroke="#231F20"><path d="M44 0H20v21l9-7h15zM18 41.672c0-1.208-.529-2.357-1.476-3.108C15.078 37.416 12.57 36 9 36s-6.078 1.416-7.524 2.564C.529 39.315 0 40.464 0 41.672V44h18v-2.328z"/><circle cx="9" cy="26" r="5"/><path d="M44 41.672c0-1.208-.529-2.357-1.476-3.108C41.078 37.416 38.57 36 35 36s-6.078 1.416-7.524 2.564c-.947.751-1.476 1.9-1.476 3.108V44h18v-2.328z"/><circle cx="35" cy="26" r="5"/></g></g></svg>

<?xml version="1.0" encoding="UTF-8"?>
<svg width="156px" height="156px" viewBox="0 0 156 156" version="1.1" xmlns="http://www.w3.org/2000/svg" xmlns:xlink="http://www.w3.org/1999/xlink">
    <!-- Generator: Sketch 39.1 (31720) - http://www.bohemiancoding.com/sketch -->
    <title>dcom-solution-testing</title>
    <desc>Created with Sketch.</desc>
    <defs>
        <rect id="path-1" x="22.7817459" y="22.7817459" width="110" height="110"></rect>
        <mask id="mask-2" maskContentUnits="userSpaceOnUse" maskUnits="objectBoundingBox" x="0" y="0" width="110" height="110" fill="white">
            <use xlink:href="#path-1"></use>
        </mask>
    </defs>
    <g id="Page-1" stroke="none" stroke-width="1" fill="none" fill-rule="evenodd">
        <g id="02_Dcom" transform="translate(-961.000000, -3695.000000)">
            <g id="Group-5" transform="translate(343.000000, 3695.000000)">
                <g id="Group-24" transform="translate(618.000000, 0.000000)">
                    <g id="dcom-solution-testing">
                        <use id="Rectangle-5" stroke="#DEDEDE" mask="url(#mask-2)" stroke-width="2" fill="#FFFFFF" transform="translate(77.781746, 77.781746) rotate(45.000000) translate(-77.781746, -77.781746) " xlink:href="#path-1"></use>
                        <rect id="Rectangle-3" fill="#FFFFFF" x="18" y="18" width="120" height="120"></rect>
                        <g id="users-48px-outline-2_b-meeting" transform="translate(56.000000, 55.000000)" stroke-width="2" stroke="#231F20">
                            <g id="Group">
                                <polygon id="Shape" points="44 0 20 0 20 21 29 14 44 14"></polygon>
                                <path d="M18,41.672 C18,40.464 17.471,39.315 16.524,38.564 C15.078,37.416 12.57,36 9,36 C5.43,36 2.922,37.416 1.476,38.564 C0.529,39.315 0,40.464 0,41.672 L0,44 L18,44 L18,41.672 Z" id="Shape"></path>
                                <circle id="Oval" cx="9" cy="26" r="5"></circle>
                                <path d="M44,41.672 C44,40.464 43.471,39.315 42.524,38.564 C41.078,37.416 38.57,36 35,36 C31.43,36 28.922,37.416 27.476,38.564 C26.529,39.315 26,40.464 26,41.672 L26,44 L44,44 L44,41.672 Z" id="Shape"></path>
                                <circle id="Oval" cx="35" cy="26" r="5"></circle>
                            </g>
                        </g>
                    </g>
                </g>
            </g>
        </g>
    </g>
</svg>
